frontend/public/favicon.svg

<?xml version="1.0" encoding="utf-8"?>
<!-- Generator: Adobe Illustrator 23.0.3, SVG Export Plug-In . SVG Version: 6.00 Build 0)  -->
<svg version="1.1" id="Layer_1" xmlns="http://www.w3.org/2000/svg" xmlns:xlink="http://www.w3.org/1999/xlink" x="0px" y="0px"
	 viewBox="0 0 640 640" style="enable-background:new 0 0 640 640;" xml:space="preserve">
<style type="text/css">
	.st0{fill:#EB5E06;}
</style>
<path class="st0" d="M415.9,344H225c2.9,64.5,17.2,123.9,37.5,167.4c11.4,24.5,23.7,41.8,35.1,52.4c11.2,10.5,18.9,12.2,22.9,12.2
	s11.7-1.7,22.9-12.2c11.4-10.6,23.7-28,35.1-52.4c20.3-43.5,34.6-102.9,37.5-167.4H415.9z M224.9,296h190.9
	c-2.8-64.5-17.1-123.9-37.4-167.4c-11.4-24.4-23.7-41.8-35.1-52.4C332.1,65.7,324.4,64,320.4,64s-11.7,1.7-22.9,12.2
	c-11.4,10.6-23.7,28-35.1,52.4C242.1,172.1,227.8,231.5,224.9,296z M176.9,296c3.5-85.6,25.6-165.1,57.9-217.3
	C142.7,111.3,74.9,195.2,65.5,296H176.9z M65.5,344c9.4,100.8,77.2,184.7,169.3,217.3c-32.3-52.2-54.4-131.7-57.9-217.3H65.5z
	 M463.9,344c-3.5,85.6-25.6,165.1-57.9,217.3c92.1-32.7,159.9-116.5,169.3-217.3H463.9z M575.3,296
	C565.9,195.2,498.1,111.3,406,78.7c32.3,52.2,54.4,131.7,57.9,217.3H575.3z"/>
</svg>

<svg xmlns="http://www.w3.org/2000/svg" viewBox="0 0 640 640"><!--!Font Awesome Free 7.2.0 by @fontawesome - https://fontawesome.com License - https://fontawesome.com/license/free Copyright 2026 Fonticons, Inc.--><path d="M415.9 344L225 344C227.9 408.5 242.2 467.9 262.5 511.4C273.9 535.9 286.2 553.2 297.6 563.8C308.8 574.3 316.5 576 320.5 576C324.5 576 332.2 574.3 343.4 563.8C354.8 553.2 367.1 535.8 378.5 511.4C398.8 467.9 413.1 408.5 416 344zM224.9 296L415.8 296C413 231.5 398.7 172.1 378.4 128.6C367 104.2 354.7 86.8 343.3 76.2C332.1 65.7 324.4 64 320.4 64C316.4 64 308.7 65.7 297.5 76.2C286.1 86.8 273.8 104.2 262.4 128.6C242.1 172.1 227.8 231.5 224.9 296zM176.9 296C180.4 210.4 202.5 130.9 234.8 78.7C142.7 111.3 74.9 195.2 65.5 296L176.9 296zM65.5 344C74.9 444.8 142.7 528.7 234.8 561.3C202.5 509.1 180.4 429.6 176.9 344L65.5 344zM463.9 344C460.4 429.6 438.3 509.1 406 561.3C498.1 528.6 565.9 444.8 575.3 344L463.9 344zM575.3 296C565.9 195.2 498.1 111.3 406 78.7C438.3 130.9 460.4 210.4 463.9 296L575.3 296z"/></svg>
